X:17
T:Professor Delbert's Birthday
R:jig
C:Paul S. Cranford
O:Cape Breton Island
S:http://www.cranfordpub.com
D:Slainte Mhath
B:Jerry Holland:The 2nd Collection
Z:psc, (re-formatted,updated 9/17/04)
N:
H:                                                        copyrights Cranford Publications, SOCAN
L:1/8
M:6/8
Q:300
K:A
cBA Bce|faf ecB|c2 A Bca|fec B2 A|
cBA Bce|faf ece|aee fec|1cBA B2 A:|2cBA B2||
|:c|Aae fec| eae fec|AaA fAe|cBA B2c|
Aae fec| eae fef|1aee fec|cBA B2:|2aea fae|fec BAB|]
